X: 164
T: Mooncoin Jig
M:6/8
L:1/8
R:jig
K:Amix
"A"cBA AEA|AEA "G"Bcd|"A"cBA Ace|"G"dBG Bcd|
"A"cBA AEA|AEA "G"Bcd|"A"Ace~g3|"G"dBG Bcd:|
|: "A"cde efg|"D"f/2g/2af "G"ged|"A"cde efg|aAB cde|
"A"cde efg|"D"afd "Em"bge|"D"afd "A"gec|"G"dBG Bcd:|
|: "A"cBA "D"Aaf|"A"ecA "G"Bcd|"A"cBA ~g3|"G"dBG Bcd|
"A"cBA Aaa|Agg "D"Aff|"A"Aee efg|"G"dBG Bcd:|


